X:1
T:Mary's Reel  " "
M:C
L:1/8
Q:80
C:D. McPhedran
S:Reel
K:HP
d |: \
ce{A}ef{gef}e2dc | \
{g}B{G}BfBaBfB | \
{g}ce{A}ef{gef}e2dc |
{g}B{G}BfBaA{d}Aa:| [ | \
c{d}A{g}A{d}A{g}A{d}A{g}c{d}A | \
{g}B{d}G{g}G{d}G{g}G{d}G{g}B{d}G |
c{d}A{g}B{d}Ac{d}A{g}B{d}A | \
{g}efgeaA{d}Aa | \
c{d}A{g}A{d}A{g}A{d}A{g}c{d}A |
{g}B{d}G{g}G{d}G{g}G{d}G{g}B{d}G | \
c{d}A{g}B{d}Ac{d}A{g}B{d}A | \
{g}efgeaA{d}A|]
